svg/nr.svg

<?xml version="1.0" encoding="UTF-8"?>
<svg width="600" height="300" xmlns="http://www.w3.org/2000/svg">
  <rect width="600" height="300" fill="#002b7f"/>
  <rect y="137.5" width="600" height="25" fill="#ffc61e"/>
  <path d="m150 262.5-6.4705-25.852-18.53 19.153 7.3223-25.624-25.624 7.3223 19.153-18.53-25.852-6.4705 25.852-6.4705-19.153-18.53 25.624 7.3223-7.3223-25.624 18.53 19.153 6.4705-25.852 6.4705 25.852 18.53-19.153-7.3223 25.624 25.624-7.3223-19.153 18.53 25.852 6.4705-25.852 6.4705 19.153 18.53-25.624-7.3223 7.3223 25.624-18.53-19.153-6.4705 25.852z" fill="#fff"/>
</svg>

<?xml version="1.0" encoding="UTF-8"?>
<svg xmlns="http://www.w3.org/2000/svg" xmlns:xlink="http://www.w3.org/1999/xlink" width="600" height="300">
<rect fill="#002b7f" width="600" height="300"/>
<rect fill="#ffc61e" y="137.5" width="600" height="25"/>
<path fill="#fff" d="M 150,262.5 L 143.5295,236.6481 L 125,255.8012 L 132.3223,230.1777 L 106.6987,237.5 L 125.8519,218.9705 L 100,212.5 L 125.8519,206.0295 L 106.6987,187.5 L 132.3223,194.8223 L 125,169.1988 L 143.5295,188.3519 L 150,162.5 L 156.4705,188.3519 L 175,169.1988 L 167.6777,194.8223 L 193.3013,187.5 L 174.1481,206.0295 L 200,212.5 L 174.1481,218.9705 L 193.3013,237.5 L 167.6777,230.1777 L 175,255.8012 L 156.4705,236.6481 L 150,262.5 z"/>
</svg>
